!!!PDT:	1923
!!!LANG: Non-Tone
!!!LING_GROUP: Siouan
!!!REG: Dakotas
!!!COM: Anon.
!!!OTL: What Was It You Struck?
!!!ODT: <1918//
!!!MPN: Kekanatka [Crow's Heart]
!!!MLC: Fort Berthold Reservation, North Dakota, United States of America
!! Song was recorded during either the summer of 1912, 1915, or 1918.
!!!AGN: monody
!!!SOCIAL_FUNCTION: Mandan and Hidatsa War Songs
!!!AMT: irregular
!!!RWG: Transcribed pitches, durations, and meters are only approximate.
!! Drum not recorded.
**kern
*ICvox
*Imale
*clefF4
*k[b-e-a-]
*M2/4
*MM50
=1-
32f
[16.f
16.f]
32f
8.f
16g
=2
8.f
32f
32f
16f
16f
16.e-
32c
=3
16e-
[16e-
16e-]
16f^
16f^
8.e-
=4
(24f^
24e-
24f)
8c
4c
=5
8.c^
16d
4c;
=6
8c^
8A-^
4c
=7
16G
[8.G
8G]
8G
=8
2G
==
*-
!!!CNT: Mandan
!!!TXO: Mandan
!!!OCY: United States
!!!OCL: Frances Densmore
!!!YOR: Frances Densmore, "Mandan and Hidatsa Music",
!!!YOR: Bulletin 80, page 168, No. 99
!!!PPR: Smithsonian Institution, Bureau of American Ethnology
!!!PPR: Government Printing Office
!!!PDT: 1923
!!!PPP: Washington, DC, United States of America
!!!YEC: Electronic Copyright 2000 David Huron
!!!YER: August 2000
!!!YEN: United States of America
!!!ENC: David Huron
!!!RDT: August 18, 2000
!!!EEV: Release 1.0
!!!AIN: tom, vox
